X: 21
M: C|
L: 1/8
K: G
|:"G"GFED EDB,G, | "C"CB,CD E2G2 | "G"D^CDE "Em"GABG | "Am"ABAG "D7"FDEF |
| "G"GFED EDB,G, | "C"CB,CD E2G2 | "G"DGBG "D7"ADFA |1 "G"G4 GD"D7"EF :|2 "G"G4 GD"D7"GA ||
[|"G"BDDB D2BD   | "C"cEEc "Am"E2cE | "G"BDDB D2BD | "Am"ABAG "D7"FDGA |
| "G"BDDB D2BD   | "C"cEEc "Am"E2cE | "G"BAGB "D7"AGFA | "G"G4 GD"D7"GA |]
[|"G"BDDB dDBD   | "C"cEEc "Am"eEcE | "G"BDDB dDBD | "Am"ABAG "D7"FDEF |
| "G"GFED EDB,G, | "C"CB,CD "Am"E2G2 | "G"DGBG "D7"ADFA | "G"GBde g4 |]


